X:186
T:Moll Peatly(New  Way). (p)1665.PLFD.186
T:Old Marrinet. (p)1665.PLFD.186
M:6/4
L:1/4
Q:3/4=90
S:Playford, Dancing Master,2nd Supp. to 3rd Ed.,1665
O:England
H:166
Z:Chris Partington
K:F
d3 f3 | A2 B c>BA| d2 e f>gf|1 e2 d d3:|2e2dd2|
|: e|f>gf cAF| f3 de^f|g>ag edc| g3-g2 f/e/|d2 e f2 g|
a2 A^c2 A|a2 A ^c2 A| a2 A ^c2 A| f2g a>gf| e>d^c d3:|
